Adwaita++/apps/16/kodi.svg

<svg height="16" viewBox="0 0 16 16" width="16" xmlns="http://www.w3.org/2000/svg">
  <path d="m7.984375 0c-.25977.004-.5077362.10920875-.6914062.29296875l-2.2929688 2.29296875v7l6.5-6.5-2.7929688-2.79296875c-.1913-.19119-.4520562-.29710875-.7226562-.29296875zm4.929687 4.5-3.4999995 3.5 3.4999995 3.5 2.792969-2.7929688c.39037-.39053.39037-1.0234624 0-1.4140624zm-9.914062.0859375-2.70703125 2.7070313c-.39037.39053-.39037 1.0234624 0 1.4140624l2.70703125 2.7070308zm5 4.828125-3.5 3.4999995 2.7929688 2.792969c.39053.39037 1.0234625.39037 1.4140624 0l2.7929688-2.792969z" fill="#444"/>
</svg>

<svg xmlns="http://www.w3.org/2000/svg" width="16" height="16" version="1.1" viewBox="0 0 16 16">
 <path fill="#444" d="M 7.984375 0 C 7.724605 0.004 7.4766388 0.10920875 7.2929688 0.29296875 L 5 2.5859375 L 5 9.5859375 L 11.5 3.0859375 L 8.7070312 0.29296875 C 8.5157312 0.10177875 8.254975 -0.00414 7.984375 0 z M 12.914062 4.5 L 9.4140625 8 L 12.914062 11.5 L 15.707031 8.7070312 C 16.097401 8.3165012 16.097401 7.6835688 15.707031 7.2929688 L 12.914062 4.5 z M 3 4.5859375 L 0.29296875 7.2929688 C -0.09740125 7.6834988 -0.09740125 8.3164312 0.29296875 8.7070312 L 3 11.414062 L 3 4.5859375 z M 8 9.4140625 L 4.5 12.914062 L 7.2929688 15.707031 C 7.6834988 16.097401 8.3164313 16.097401 8.7070312 15.707031 L 11.5 12.914062 L 8 9.4140625 z"/>
</svg>
